X:9040
T:La Péronnelle
C:trad
A:Bas-Maine
O:France
M:4/4
L:1/4
Q:1/4=170
K:C
c|dec2|edAB|G2 z c|ded2|cBAB|c2c2|z cde|
f4|dece|d3c|dec2|edAB|G3c|ded2|cBAB|c3||
W:
W:N'as-tu point vu la Péronnelle
W:Que nos gendarmes ont tant cherchée (bis)
W:L'ont tant cherchée qu'ils l'ont trouvée
W:A la fontaine des verts prés.
W:
W:A la fontaine des verts prés (bis)
W:Où elle faisait sa cavale (bis)
W:C'était pour mieux la chevaucher.


